SQLiteStudio3/guiSQLiteStudio/img/reload.svg

<?xml version="1.0" encoding="UTF-8" standalone="no"?>
<svg
   xmlns:ooo="http://xml.openoffice.org/svg/export"
   xmlns:osb="http://www.openswatchbook.org/uri/2009/osb"
   xmlns:dc="http://purl.org/dc/elements/1.1/"
   xmlns:cc="http://creativecommons.org/ns#"
   xmlns:rdf="http://www.w3.org/1999/02/22-rdf-syntax-ns#"
   xmlns:svg="http://www.w3.org/2000/svg"
   xmlns="http://www.w3.org/2000/svg"
   xmlns:sodipodi="http://sodipodi.sourceforge.net/DTD/sodipodi-0.dtd"
   xmlns:inkscape="http://www.inkscape.org/namespaces/inkscape"
   version="1.2"
   width="20mm"
   height="20mm"
   viewBox="0 0 2000 2000"
   preserveAspectRatio="xMidYMid"
   fill-rule="evenodd"
   stroke-width="28.222"
   stroke-linejoin="round"
   xml:space="preserve"
   id="svg113"
   sodipodi:docname="reload.svg"
   inkscape:version="1.0 (4035a4fb49, 2020-05-01)"><metadata
   id="metadata117"><rdf:RDF><cc:Work
       rdf:about=""><dc:format>image/svg+xml</dc:format><dc:type
         rdf:resource="http://purl.org/dc/dcmitype/StillImage" /></cc:Work></rdf:RDF></metadata><sodipodi:namedview
   pagecolor="#ffffff"
   bordercolor="#666666"
   borderopacity="1"
   objecttolerance="10"
   gridtolerance="10"
   guidetolerance="10"
   inkscape:pageopacity="0"
   inkscape:pageshadow="2"
   inkscape:window-width="3440"
   inkscape:window-height="1377"
   id="namedview115"
   showgrid="false"
   inkscape:zoom="9.4292689"
   inkscape:cx="-17.548847"
   inkscape:cy="34.172121"
   inkscape:window-x="-8"
   inkscape:window-y="-8"
   inkscape:window-maximized="1"
   inkscape:current-layer="g2976-7"
   inkscape:document-rotation="0" />
 <defs
   class="ClipPathGroup"
   id="defs8"><linearGradient
   id="linearGradient2916"
   osb:paint="solid"><stop
     style="stop-color:#000000;stop-opacity:1;"
     offset="0"
     id="stop2914" /></linearGradient><linearGradient
   id="linearGradient2910"
   osb:paint="solid"><stop
     style="stop-color:#000000;stop-opacity:1;"
     offset="0"
     id="stop2908" /></linearGradient><linearGradient
   id="linearGradient962"
   osb:paint="solid"><stop
     style="stop-color:#000000;stop-opacity:1;"
     offset="0"
     id="stop960" /></linearGradient>
  <clipPath
   id="presentation_clip_path"
   clipPathUnits="userSpaceOnUse">
   <rect
   x="0"
   y="0"
   width="2000"
   height="2000"
   id="rect2" />
  </clipPath>
  <clipPath
   id="presentation_clip_path_shrink"
   clipPathUnits="userSpaceOnUse">
   <rect
   x="2"
   y="2"
   width="1996"
   height="1996"
   id="rect5" />
  </clipPath>
 </defs>
 <defs
   class="TextShapeIndex"
   id="defs12">
  <g
   ooo:slide="id1"
   ooo:id-list="id3 id4 id5"
   id="g10" />
 </defs>
 <defs
   class="EmbeddedBulletChars"
   id="defs44">
  <g
   id="bullet-char-template-57356"
   transform="scale(0.00048828125,-0.00048828125)">
   <path
   d="M 580,1141 L 1163,571 580,0 -4,571 580,1141 Z"
   id="path14" />
  </g>
  <g
   id="bullet-char-template-57354"
   transform="scale(0.00048828125,-0.00048828125)">
   <path
   d="M 8,1128 L 1137,1128 1137,0 8,0 8,1128 Z"
   id="path17" />
  </g>
  <g
   id="bullet-char-template-10146"
   transform="scale(0.00048828125,-0.00048828125)">
   <path
   d="M 174,0 L 602,739 174,1481 1456,739 174,0 Z M 1358,739 L 309,1346 659,739 1358,739 Z"
   id="path20" />
  </g>
  <g
   id="bullet-char-template-10132"
   transform="scale(0.00048828125,-0.00048828125)">
   <path
   d="M 2015,739 L 1276,0 717,0 1260,543 174,543 174,936 1260,936 717,1481 1274,1481 2015,739 Z"
   id="path23" />
  </g>
  <g
   id="bullet-char-template-10007"
   transform="scale(0.00048828125,-0.00048828125)">
   <path
   d="M 0,-2 C -7,14 -16,27 -25,37 L 356,567 C 262,823 215,952 215,954 215,979 228,992 255,992 264,992 276,990 289,987 310,991 331,999 354,1012 L 381,999 492,748 772,1049 836,1024 860,1049 C 881,1039 901,1025 922,1006 886,937 835,863 770,784 769,783 710,716 594,584 L 774,223 C 774,196 753,168 711,139 L 727,119 C 717,90 699,76 672,76 641,76 570,178 457,381 L 164,-76 C 142,-110 111,-127 72,-127 30,-127 9,-110 8,-76 1,-67 -2,-52 -2,-32 -2,-23 -1,-13 0,-2 Z"
   id="path26" />
  </g>
  <g
   id="bullet-char-template-10004"
   transform="scale(0.00048828125,-0.00048828125)">
   <path
   d="M 285,-33 C 182,-33 111,30 74,156 52,228 41,333 41,471 41,549 55,616 82,672 116,743 169,778 240,778 293,778 328,747 346,684 L 369,508 C 377,444 397,411 428,410 L 1163,1116 C 1174,1127 1196,1133 1229,1133 1271,1133 1292,1118 1292,1087 L 1292,965 C 1292,929 1282,901 1262,881 L 442,47 C 390,-6 338,-33 285,-33 Z"
   id="path29" />
  </g>
  <g
   id="bullet-char-template-9679"
   transform="scale(0.00048828125,-0.00048828125)">
   <path
   d="M 813,0 C 632,0 489,54 383,161 276,268 223,411 223,592 223,773 276,916 383,1023 489,1130 632,1184 813,1184 992,1184 1136,1130 1245,1023 1353,916 1407,772 1407,592 1407,412 1353,268 1245,161 1136,54 992,0 813,0 Z"
   id="path32" />
  </g>
  <g
   id="bullet-char-template-8226"
   transform="scale(0.00048828125,-0.00048828125)">
   <path
   d="M 346,457 C 273,457 209,483 155,535 101,586 74,649 74,723 74,796 101,859 155,911 209,963 273,989 346,989 419,989 480,963 531,910 582,859 608,796 608,723 608,648 583,586 532,535 482,483 420,457 346,457 Z"
   id="path35" />
  </g>
  <g
   id="bullet-char-template-8211"
   transform="scale(0.00048828125,-0.00048828125)">
   <path
   d="M -4,459 L 1135,459 1135,606 -4,606 -4,459 Z"
   id="path38" />
  </g>
  <g
   id="bullet-char-template-61548"
   transform="scale(0.00048828125,-0.00048828125)">
   <path
   d="M 173,740 C 173,903 231,1043 346,1159 462,1274 601,1332 765,1332 928,1332 1067,1274 1183,1159 1299,1043 1357,903 1357,740 1357,577 1299,437 1183,322 1067,206 928,148 765,148 601,148 462,206 346,322 231,437 173,577 173,740 Z"
   id="path41" />
  </g>
 </defs>
 <g
   id="g49">
  <g
   id="id2"
   class="Master_Slide">
   <g
   id="bg-id2"
   class="Background" />
   <g
   id="bo-id2"
   class="BackgroundObjects" />
  </g>
 </g>
 <g
   class="SlideGroup"
   id="g111">
  <g
   id="g109">
   <g
   id="container-id1">
    <g
   id="id1"
   class="Slide"
   clip-path="url(#presentation_clip_path)">
     <g
   class="Page"
   id="g105">
      <g
   class="com.sun.star.drawing.CustomShape"
   id="g67"
   style="display:inline">
       <g
   id="id3">
        <rect
   class="BoundingBox"
   stroke="none"
   fill="none"
   x="100"
   y="100"
   width="1802"
   height="1802"
   id="rect51" />
        <g
   id="g62">
         <defs
   id="defs58">
          <linearGradient
   id="gradient1"
   x1="420"
   y1="-5"
   x2="1581"
   y2="2006"
   gradientUnits="userSpaceOnUse">
           <stop
   offset="0"
   style="stop-color:rgb(114,159,207)"
   id="stop53" />
           <stop
   offset="1"
   style="stop-color:rgb(0,66,255)"
   id="stop55" />
          </linearGradient>
         </defs>
         <path
   style="fill:url(#gradient1)"
   d="m 433,150 v 0 l -18,1 -19,1 -18,3 -18,5 -18,5 -17,7 -17,7 -16,9 -16,10 -15,11 -14,11 -14,13 -13,14 -11,14 -11,15 -10,16 -9,16 -7,17 -7,17 -5,18 -5,18 -3,18 -1,19 -1,19 v 1133 1 l 1,18 1,19 3,18 5,18 5,18 7,17 7,17 9,16 10,16 11,15 11,14 13,14 14,13 14,11 15,11 16,10 16,9 17,7 17,7 18,5 18,5 18,3 19,1 19,1 h 1133 1 l 18,-1 19,-1 18,-3 18,-5 18,-5 17,-7 17,-7 16,-9 16,-10 15,-11 14,-11 14,-13 13,-14 11,-14 11,-15 10,-16 9,-16 7,-17 7,-17 5,-18 5,-18 3,-18 1,-19 1,-18 v -1135 1 -1 l -1,-18 -1,-19 -3,-18 -5,-18 -5,-18 -7,-17 -7,-17 -9,-16 -10,-16 -11,-15 -11,-14 -13,-14 -14,-13 -14,-11 -15,-11 -16,-10 -16,-9 -17,-7 -17,-7 -18,-5 -18,-5 -18,-3 -19,-1 -18,-1 z"
   id="path60" />
        </g>
        <path
   fill="none"
   stroke="#000d78"
   stroke-width="100"
   stroke-linejoin="round"
   d="m 433,150 v 0 c -49,0 -98,13 -141,38 -43,25 -79,61 -104,104 -25,43 -38,92 -38,142 v 1133 1 c 0,49 13,98 38,141 25,43 61,79 104,104 43,25 92,38 142,38 h 1133 1 c 49,0 98,-13 141,-38 43,-25 79,-61 104,-104 25,-43 38,-92 38,-141 v -1135 1 -1 c 0,-49 -13,-98 -38,-141 -25,-43 -61,-79 -104,-104 -43,-25 -92,-38 -141,-38 z"
   id="path64" />
       </g>
      </g>
      <g
   class="com.sun.star.drawing.PolyPolygonShape"
   id="g85"
   style="display:none">
       <g
   id="id4">
        <rect
   class="BoundingBox"
   stroke="none"
   fill="none"
   x="269"
   y="240"
   width="1073"
   height="1045"
   id="rect69" />
        <g
   id="g80">
         <defs
   id="defs76">
          <linearGradient
   id="gradient2"
   x1="454"
   y1="154"
   x2="1156"
   y2="1370"
   gradientUnits="userSpaceOnUse">
           <stop
   offset="0"
   style="stop-color:rgb(255,255,255)"
   id="stop71" />
           <stop
   offset="1"
   style="stop-color:rgb(114,159,207)"
   id="stop73" />
          </linearGradient>
         </defs>
         <path
   style="fill:url(#gradient2)"
   d="m 899,719 h -19 l -18,2 -18,1 -17,3 -18,3 -18,4 -17,6 -16,5 -17,7 -15,6 -16,8 -15,8 -15,10 -13,9 -14,9 -13,11 -11,11 -12,12 -11,12 -9,13 -9,12 -9,13 -7,14 -6,14 -7,13 -4,15 -4,14 -2,15 -3,15 -1,14 v 15 15 l 2,15 2,14 4,15 4,14 5,14 7,15 6,13 8,13 8,13 9,13 11,12 11,12 12,12 -92,68 -68,-26 -54,-37 -42,-37 -33,-33 -25,-36 -18,-42 -15,-48 -5,-47 6,-53 15,-49 9,-24 12,-26 13,-23 15,-23 16,-23 17,-21 18,-21 20,-21 21,-20 23,-18 22,-17 25,-16 25,-17 27,-13 27,-14 28,-12 29,-12 30,-10 30,-8 30,-7 31,-7 30,-4 32,-4 32,-2 h 32 l -5,-247 436,358 -428,344 z"
   id="path78" />
        </g>
        <path
   fill="none"
   stroke="#000d78"
   stroke-width="25"
   stroke-linejoin="round"
   d="m 899,719 h -19 l -18,2 -18,1 -17,3 -18,3 -18,4 -17,6 -16,5 -17,7 -15,6 -16,8 -15,8 -15,10 -13,9 -14,9 -13,11 -11,11 -12,12 -11,12 -9,13 -9,12 -9,13 -7,14 -6,14 -7,13 -4,15 -4,14 -2,15 -3,15 -1,14 v 15 15 l 2,15 2,14 4,15 4,14 5,14 7,15 6,13 8,13 8,13 9,13 11,12 11,12 12,12 -92,68 -68,-26 -54,-37 -42,-37 -33,-33 -25,-36 -18,-42 -15,-48 -5,-47 6,-53 15,-49 9,-24 12,-26 13,-23 15,-23 16,-23 17,-21 18,-21 20,-21 21,-20 23,-18 22,-17 25,-16 25,-17 27,-13 27,-14 28,-12 29,-12 30,-10 30,-8 30,-7 31,-7 30,-4 32,-4 32,-2 h 32 l -5,-247 436,358 -428,344 z"
   id="path82" />
       </g>
      </g>
      <g
   class="com.sun.star.drawing.PolyPolygonShape"
   id="g103"
   style="display:none">
       <g
   id="id5">
        <rect
   class="BoundingBox"
   stroke="none"
   fill="none"
   x="654"
   y="724"
   width="1073"
   height="1045"
   id="rect87" />
        <g
   id="g98">
         <defs
   id="defs94">
          <linearGradient
   id="gradient3"
   x1="839"
   y1="638"
   x2="1541"
   y2="1854"
   gradientUnits="userSpaceOnUse">
           <stop
   offset="0"
   style="stop-color:rgb(255,255,255)"
   id="stop89" />
           <stop
   offset="1"
   style="stop-color:rgb(114,159,207)"
   id="stop91" />
          </linearGradient>
         </defs>
         <path
   style="fill:url(#gradient3)"
   d="m 1096,1289 h 19 l 18,-2 18,-1 17,-3 18,-3 18,-4 17,-6 16,-5 17,-7 15,-6 16,-8 15,-8 15,-10 13,-9 14,-9 13,-11 11,-11 12,-12 11,-12 9,-13 9,-12 9,-13 7,-14 6,-14 7,-13 4,-15 4,-14 2,-15 3,-15 1,-14 v -15 -15 l -2,-15 -2,-14 -4,-15 -4,-14 -5,-14 -7,-15 -6,-13 -8,-13 -8,-13 -9,-13 -11,-12 -11,-12 -12,-12 92,-68 68,26 54,37 42,37 33,33 25,36 18,42 15,48 5,47 -6,53 -15,49 -9,24 -12,26 -13,23 -15,23 -16,23 -17,21 -18,21 -20,21 -21,20 -23,18 -22,17 -25,16 -25,17 -27,13 -27,14 -28,12 -29,12 -30,10 -30,8 -30,7 -31,7 -30,4 -32,4 -32,2 h -32 l 5,247 -436,-358 428,-344 z"
   id="path96" />
        </g>
        <path
   fill="none"
   stroke="#000d78"
   stroke-width="25"
   stroke-linejoin="round"
   d="m 1096,1289 h 19 l 18,-2 18,-1 17,-3 18,-3 18,-4 17,-6 16,-5 17,-7 15,-6 16,-8 15,-8 15,-10 13,-9 14,-9 13,-11 11,-11 12,-12 11,-12 9,-13 9,-12 9,-13 7,-14 6,-14 7,-13 4,-15 4,-14 2,-15 3,-15 1,-14 v -15 -15 l -2,-15 -2,-14 -4,-15 -4,-14 -5,-14 -7,-15 -6,-13 -8,-13 -8,-13 -9,-13 -11,-12 -11,-12 -12,-12 92,-68 68,26 54,37 42,37 33,33 25,36 18,42 15,48 5,47 -6,53 -15,49 -9,24 -12,26 -13,23 -15,23 -16,23 -17,21 -18,21 -20,21 -21,20 -23,18 -22,17 -25,16 -25,17 -27,13 -27,14 -28,12 -29,12 -30,10 -30,8 -30,7 -31,7 -30,4 -32,4 -32,2 h -32 l 5,247 -436,-358 428,-344 z"
   id="path100" />
       </g>
      </g>
     </g>
    </g>
   </g>
  </g>
 </g>
<g
   id="g913"><g
     transform="matrix(0.94116393,0,0,0.94116393,62.754326,36.599069)"
     id="g2976"><path
       id="path2934"
       style="display:inline;fill:#e5ebff;fill-opacity:1;fill-rule:nonzero;stroke:none;stroke-width:6.12659;stroke-linecap:round;stroke-linejoin:round;stroke-miterlimit:4;stroke-dasharray:none;stroke-opacity:1"
       d="m 13.167969,15.027344 7.701172,7.59375 a 22.359291,22.206145 0 0 0 -5.285157,14.333984 22.359291,22.206145 0 0 0 20.324219,22.113281 v -7.1875 a 15.065164,15.065164 0 0 1 -13.029297,-14.925781 15.065164,15.065164 0 0 1 3.16211,-9.234375 l 8.373046,8.255859 v -13.667968 -7.28125 z"
       transform="matrix(28.112353,0,0,28.112353,-66.67736,-38.887029)" /></g><g
     transform="matrix(-0.9411639,0,0,-0.9411639,1961.4123,1925.718)"
     id="g2976-7"><path
       id="path2934-9"
       style="display:inline;fill:#e5ebff;fill-opacity:1;fill-rule:nonzero;stroke:none;stroke-width:6.12659;stroke-linecap:round;stroke-linejoin:round;stroke-miterlimit:4;stroke-dasharray:none;stroke-opacity:1"
       d="m 13.167969,15.027344 7.701172,7.59375 a 22.359291,22.206145 0 0 0 -5.285157,14.333984 22.359291,22.206145 0 0 0 20.324219,22.113281 v -7.1875 a 15.065164,15.065164 0 0 1 -13.029297,-14.925781 15.065164,15.065164 0 0 1 3.16211,-9.234375 l 8.373046,8.255859 v -13.667968 -7.28125 z"
       transform="matrix(28.112353,0,0,28.112353,-66.67736,-38.887029)" /></g></g></svg>

<?xml version="1.0" encoding="UTF-8"?>
<!DOCTYPE svg PUBLIC "-//W3C//DTD SVG 1.1//EN" "http://www.w3.org/Graphics/SVG/1.1/DTD/svg11.dtd">
<svg version="1.2" width="20mm" height="20mm" viewBox="0 0 2000 2000" preserveAspectRatio="xMidYMid" fill-rule="evenodd" stroke-width="28.222" stroke-linejoin="round" xmlns="http://www.w3.org/2000/svg" xmlns:ooo="http://xml.openoffice.org/svg/export" xmlns:xlink="http://www.w3.org/1999/xlink" xmlns:presentation="http://sun.com/xmlns/staroffice/presentation" xmlns:smil="http://www.w3.org/2001/SMIL20/" xmlns:anim="urn:oasis:names:tc:opendocument:xmlns:animation:1.0" xmlns:svg="urn:oasis:names:tc:opendocument:xmlns:svg-compatible:1.0" xml:space="preserve">
 <defs class="ClipPathGroup">
  <clipPath id="presentation_clip_path" clipPathUnits="userSpaceOnUse">
   <rect x="0" y="0" width="2000" height="2000"/>
  </clipPath>
  <clipPath id="presentation_clip_path_shrink" clipPathUnits="userSpaceOnUse">
   <rect x="2" y="2" width="1996" height="1996"/>
  </clipPath>
 </defs>
 <defs class="TextShapeIndex">
  <g ooo:slide="id1" ooo:id-list="id3 id4 id5"/>
 </defs>
 <defs class="EmbeddedBulletChars">
  <g id="bullet-char-template-57356" transform="scale(0.00048828125,-0.00048828125)">
   <path d="M 580,1141 L 1163,571 580,0 -4,571 580,1141 Z"/>
  </g>
  <g id="bullet-char-template-57354" transform="scale(0.00048828125,-0.00048828125)">
   <path d="M 8,1128 L 1137,1128 1137,0 8,0 8,1128 Z"/>
  </g>
  <g id="bullet-char-template-10146" transform="scale(0.00048828125,-0.00048828125)">
   <path d="M 174,0 L 602,739 174,1481 1456,739 174,0 Z M 1358,739 L 309,1346 659,739 1358,739 Z"/>
  </g>
  <g id="bullet-char-template-10132" transform="scale(0.00048828125,-0.00048828125)">
   <path d="M 2015,739 L 1276,0 717,0 1260,543 174,543 174,936 1260,936 717,1481 1274,1481 2015,739 Z"/>
  </g>
  <g id="bullet-char-template-10007" transform="scale(0.00048828125,-0.00048828125)">
   <path d="M 0,-2 C -7,14 -16,27 -25,37 L 356,567 C 262,823 215,952 215,954 215,979 228,992 255,992 264,992 276,990 289,987 310,991 331,999 354,1012 L 381,999 492,748 772,1049 836,1024 860,1049 C 881,1039 901,1025 922,1006 886,937 835,863 770,784 769,783 710,716 594,584 L 774,223 C 774,196 753,168 711,139 L 727,119 C 717,90 699,76 672,76 641,76 570,178 457,381 L 164,-76 C 142,-110 111,-127 72,-127 30,-127 9,-110 8,-76 1,-67 -2,-52 -2,-32 -2,-23 -1,-13 0,-2 Z"/>
  </g>
  <g id="bullet-char-template-10004" transform="scale(0.00048828125,-0.00048828125)">
   <path d="M 285,-33 C 182,-33 111,30 74,156 52,228 41,333 41,471 41,549 55,616 82,672 116,743 169,778 240,778 293,778 328,747 346,684 L 369,508 C 377,444 397,411 428,410 L 1163,1116 C 1174,1127 1196,1133 1229,1133 1271,1133 1292,1118 1292,1087 L 1292,965 C 1292,929 1282,901 1262,881 L 442,47 C 390,-6 338,-33 285,-33 Z"/>
  </g>
  <g id="bullet-char-template-9679" transform="scale(0.00048828125,-0.00048828125)">
   <path d="M 813,0 C 632,0 489,54 383,161 276,268 223,411 223,592 223,773 276,916 383,1023 489,1130 632,1184 813,1184 992,1184 1136,1130 1245,1023 1353,916 1407,772 1407,592 1407,412 1353,268 1245,161 1136,54 992,0 813,0 Z"/>
  </g>
  <g id="bullet-char-template-8226" transform="scale(0.00048828125,-0.00048828125)">
   <path d="M 346,457 C 273,457 209,483 155,535 101,586 74,649 74,723 74,796 101,859 155,911 209,963 273,989 346,989 419,989 480,963 531,910 582,859 608,796 608,723 608,648 583,586 532,535 482,483 420,457 346,457 Z"/>
  </g>
  <g id="bullet-char-template-8211" transform="scale(0.00048828125,-0.00048828125)">
   <path d="M -4,459 L 1135,459 1135,606 -4,606 -4,459 Z"/>
  </g>
  <g id="bullet-char-template-61548" transform="scale(0.00048828125,-0.00048828125)">
   <path d="M 173,740 C 173,903 231,1043 346,1159 462,1274 601,1332 765,1332 928,1332 1067,1274 1183,1159 1299,1043 1357,903 1357,740 1357,577 1299,437 1183,322 1067,206 928,148 765,148 601,148 462,206 346,322 231,437 173,577 173,740 Z"/>
  </g>
 </defs>
 <g>
  <g id="id2" class="Master_Slide">
   <g id="bg-id2" class="Background"/>
   <g id="bo-id2" class="BackgroundObjects"/>
  </g>
 </g>
 <g class="SlideGroup">
  <g>
   <g id="container-id1">
    <g id="id1" class="Slide" clip-path="url(#presentation_clip_path)">
     <g class="Page">
      <g class="com.sun.star.drawing.CustomShape">
       <g id="id3">
        <rect class="BoundingBox" stroke="none" fill="none" x="100" y="100" width="1802" height="1802"/>
        <g>
         <defs>
          <linearGradient id="gradient1" x1="420" y1="-5" x2="1581" y2="2006" gradientUnits="userSpaceOnUse">
           <stop offset="0" style="stop-color:rgb(114,159,207)"/>
           <stop offset="1" style="stop-color:rgb(0,66,255)"/>
          </linearGradient>
         </defs>
         <path style="fill:url(#gradient1)" d="M 433,150 L 433,150 415,151 396,152 378,155 360,160 342,165 325,172 308,179 292,188 276,198 261,209 247,220 233,233 220,247 209,261 198,276 188,292 179,308 172,325 165,342 160,360 155,378 152,396 151,415 150,434 150,1567 150,1568 151,1586 152,1605 155,1623 160,1641 165,1659 172,1676 179,1693 188,1709 198,1725 209,1740 220,1754 233,1768 247,1781 261,1792 276,1803 292,1813 308,1822 325,1829 342,1836 360,1841 378,1846 396,1849 415,1850 434,1851 1567,1851 1568,1851 1586,1850 1605,1849 1623,1846 1641,1841 1659,1836 1676,1829 1693,1822 1709,1813 1725,1803 1740,1792 1754,1781 1768,1768 1781,1754 1792,1740 1803,1725 1813,1709 1822,1693 1829,1676 1836,1659 1841,1641 1846,1623 1849,1605 1850,1586 1851,1568 1851,433 1851,434 1851,433 1850,415 1849,396 1846,378 1841,360 1836,342 1829,325 1822,308 1813,292 1803,276 1792,261 1781,247 1768,233 1754,220 1740,209 1725,198 1709,188 1693,179 1676,172 1659,165 1641,160 1623,155 1605,152 1586,151 1568,150 433,150 Z"/>
        </g>
        <path fill="none" stroke="rgb(0,13,120)" stroke-width="100" stroke-linejoin="round" d="M 433,150 L 433,150 C 384,150 335,163 292,188 249,213 213,249 188,292 163,335 150,384 150,434 L 150,1567 150,1568 C 150,1617 163,1666 188,1709 213,1752 249,1788 292,1813 335,1838 384,1851 434,1851 L 1567,1851 1568,1851 C 1617,1851 1666,1838 1709,1813 1752,1788 1788,1752 1813,1709 1838,1666 1851,1617 1851,1568 L 1851,433 1851,434 1851,433 C 1851,384 1838,335 1813,292 1788,249 1752,213 1709,188 1666,163 1617,150 1568,150 L 433,150 Z"/>
       </g>
      </g>
      <g class="com.sun.star.drawing.PolyPolygonShape">
       <g id="id4">
        <rect class="BoundingBox" stroke="none" fill="none" x="269" y="240" width="1073" height="1045"/>
        <g>
         <defs>
          <linearGradient id="gradient2" x1="454" y1="154" x2="1156" y2="1370" gradientUnits="userSpaceOnUse">
           <stop offset="0" style="stop-color:rgb(255,255,255)"/>
           <stop offset="1" style="stop-color:rgb(114,159,207)"/>
          </linearGradient>
         </defs>
         <path style="fill:url(#gradient2)" d="M 899,719 L 880,719 862,721 844,722 827,725 809,728 791,732 774,738 758,743 741,750 726,756 710,764 695,772 680,782 667,791 653,800 640,811 629,822 617,834 606,846 597,859 588,871 579,884 572,898 566,912 559,925 555,940 551,954 549,969 546,984 545,998 545,1013 545,1028 547,1043 549,1057 553,1072 557,1086 562,1100 569,1115 575,1128 583,1141 591,1154 600,1167 611,1179 622,1191 634,1203 542,1271 474,1245 420,1208 378,1171 345,1138 320,1102 302,1060 287,1012 282,965 288,912 303,863 312,839 324,813 337,790 352,767 368,744 385,723 403,702 423,681 444,661 467,643 489,626 514,610 539,593 566,580 593,566 621,554 650,542 680,532 710,524 740,517 771,510 801,506 833,502 865,500 897,500 892,253 1328,611 900,955 899,719 Z"/>
        </g>
        <path fill="none" stroke="rgb(0,13,120)" stroke-width="25" stroke-linejoin="round" d="M 899,719 L 880,719 862,721 844,722 827,725 809,728 791,732 774,738 758,743 741,750 726,756 710,764 695,772 680,782 667,791 653,800 640,811 629,822 617,834 606,846 597,859 588,871 579,884 572,898 566,912 559,925 555,940 551,954 549,969 546,984 545,998 545,1013 545,1028 547,1043 549,1057 553,1072 557,1086 562,1100 569,1115 575,1128 583,1141 591,1154 600,1167 611,1179 622,1191 634,1203 542,1271 474,1245 420,1208 378,1171 345,1138 320,1102 302,1060 287,1012 282,965 288,912 303,863 312,839 324,813 337,790 352,767 368,744 385,723 403,702 423,681 444,661 467,643 489,626 514,610 539,593 566,580 593,566 621,554 650,542 680,532 710,524 740,517 771,510 801,506 833,502 865,500 897,500 892,253 1328,611 900,955 899,719 Z"/>
       </g>
      </g>
      <g class="com.sun.star.drawing.PolyPolygonShape">
       <g id="id5">
        <rect class="BoundingBox" stroke="none" fill="none" x="654" y="724" width="1073" height="1045"/>
        <g>
         <defs>
          <linearGradient id="gradient3" x1="839" y1="638" x2="1541" y2="1854" gradientUnits="userSpaceOnUse">
           <stop offset="0" style="stop-color:rgb(255,255,255)"/>
           <stop offset="1" style="stop-color:rgb(114,159,207)"/>
          </linearGradient>
         </defs>
         <path style="fill:url(#gradient3)" d="M 1096,1289 L 1115,1289 1133,1287 1151,1286 1168,1283 1186,1280 1204,1276 1221,1270 1237,1265 1254,1258 1269,1252 1285,1244 1300,1236 1315,1226 1328,1217 1342,1208 1355,1197 1366,1186 1378,1174 1389,1162 1398,1149 1407,1137 1416,1124 1423,1110 1429,1096 1436,1083 1440,1068 1444,1054 1446,1039 1449,1024 1450,1010 1450,995 1450,980 1448,965 1446,951 1442,936 1438,922 1433,908 1426,893 1420,880 1412,867 1404,854 1395,841 1384,829 1373,817 1361,805 1453,737 1521,763 1575,800 1617,837 1650,870 1675,906 1693,948 1708,996 1713,1043 1707,1096 1692,1145 1683,1169 1671,1195 1658,1218 1643,1241 1627,1264 1610,1285 1592,1306 1572,1327 1551,1347 1528,1365 1506,1382 1481,1398 1456,1415 1429,1428 1402,1442 1374,1454 1345,1466 1315,1476 1285,1484 1255,1491 1224,1498 1194,1502 1162,1506 1130,1508 1098,1508 1103,1755 667,1397 1095,1053 1096,1289 Z"/>
        </g>
        <path fill="none" stroke="rgb(0,13,120)" stroke-width="25" stroke-linejoin="round" d="M 1096,1289 L 1115,1289 1133,1287 1151,1286 1168,1283 1186,1280 1204,1276 1221,1270 1237,1265 1254,1258 1269,1252 1285,1244 1300,1236 1315,1226 1328,1217 1342,1208 1355,1197 1366,1186 1378,1174 1389,1162 1398,1149 1407,1137 1416,1124 1423,1110 1429,1096 1436,1083 1440,1068 1444,1054 1446,1039 1449,1024 1450,1010 1450,995 1450,980 1448,965 1446,951 1442,936 1438,922 1433,908 1426,893 1420,880 1412,867 1404,854 1395,841 1384,829 1373,817 1361,805 1453,737 1521,763 1575,800 1617,837 1650,870 1675,906 1693,948 1708,996 1713,1043 1707,1096 1692,1145 1683,1169 1671,1195 1658,1218 1643,1241 1627,1264 1610,1285 1592,1306 1572,1327 1551,1347 1528,1365 1506,1382 1481,1398 1456,1415 1429,1428 1402,1442 1374,1454 1345,1466 1315,1476 1285,1484 1255,1491 1224,1498 1194,1502 1162,1506 1130,1508 1098,1508 1103,1755 667,1397 1095,1053 1096,1289 Z"/>
       </g>
      </g>
     </g>
    </g>
   </g>
  </g>
 </g>
</svg>
